; generated by Slic3r 1.2.9 on 2015-12-13 at 04:43:38

; external perimeters extrusion width = 0.35mm
; perimeters extrusion width = 0.32mm
; infill extrusion width = 0.38mm
; solid infill extrusion width = 0.35mm
; top infill extrusion width = 0.30mm
; support material extrusion width = 0.40mm

M107
M190 S60 ; set bed temperature
M104 S200 ; set temperature
G28 ; home all axes
G1 Z5 F5000 ; lift nozzle
M109 S200 ; wait for temperature to be reached
G21 ; set units to millimeters
G90 ; use absolute coordinates
M82 ; use absolute distances for extrusion
G92 E0
G1 E-2.50000 F1200.00000
G92 E0
G1 Z0.200 F4500.000
G1 X97.871 Y111.455 F4500.000
G1 E2.50000 F1200.00000
G1 X99.627 Y109.955 E2.52333 F1200.000
G1 X102.048 Y109.095 E2.54928
G1 X160.620 Y100.301 E3.14768
G1 X161.616 Y100.227 E3.15778
G1 X194.955 Y100.226 E3.49461
G1 X197.230 Y100.623 E3.51794
G1 X199.235 Y101.767 E3.54127 F1200.000
G1 X200.735 Y103.523 E3.56460
G1 X201.551 Y105.683 E3.58793
G1 X201.670 Y106.940 E3.60069
G1 X201.670 Y150.597 E4.04176
G1 X201.273 Y152.872 E4.06509
G1 X200.129 Y154.877 E4.08842
G1 X198.373 Y156.377 E4.11175
G1 X196.106 Y157.212 E4.13615
G1 X131.304 Y168.488 E4.80071
G1 X129.541 Y168.559 E4.81854
G1 X102.433 Y166.078 E5.09356
G1 X100.204 Y165.476 E5.11689
G1 X98.311 Y164.153 E5.14022
G1 X96.978 Y162.268 E5.16354
G1 X96.330 Y159.392 E5.19333
G1 X96.330 Y115.735 E5.63441
G1 X96.727 Y113.460 E5.65774
G1 X97.834 Y111.520 E5.68031
G1 X98.193 Y111.644 F4500.000
G1 X98.225 Y111.589 E5.68096 F1200.000
G1 X99.968 Y110.172 E5.70365
G1 X102.101 Y109.448 E5.72640
G1 X160.673 Y100.654 E6.32481
G1 X161.616 Y100.584 E6.33437
G1 X194.955 Y100.583 E6.67120
G1 X197.166 Y100.980 E6.69389
G1 X199.101 Y102.121 E6.71659 F1200.000
G1 X200.518 Y103.863 E6.73928
G1 X201.313 Y106.940 E6.77139
G1 X201.313 Y150.597 E7.21247
G1 X200.916 Y152.808 E7.23516
G1 X199.775 Y154.743 E7.25785
G1 X198.032 Y156.160 E7.28055
G1 X196.045 Y156.860 E7.30183
G1 X131.242 Y168.136 E7.96639
G1 X129.573 Y168.203 E7.98327
G1 X102.465 Y165.723 E8.25829
G1 X100.300 Y165.126 E8.28099
G1 X98.477 Y163.813 E8.30368
G1 X97.224 Y161.949 E8.32638
G1 X96.687 Y159.392 E8.35277
G1 X96.687 Y115.735 E8.79385
G1 X97.084 Y113.524 E8.81655
G1 X98.155 Y111.709 E8.83784
G1 E6.33784 F1200.00000
G92 E0
G1 X125.546 Y158.478 F4500.000
G1 E2.50000 F1200.00000
G1 X103.959 Y158.478 E2.71811 F1050.000
G1 X103.959 Y116.649 E3.14071
G1 X125.546 Y116.649 E3.35882
G1 X125.546 Y158.403 E3.78067
G1 X125.903 Y158.835 F4500.000
G1 X103.602 Y158.835 E4.00599 F1050.000
G1 X103.602 Y116.292 E4.43581
G1 X125.903 Y116.292 E4.66114
G1 X125.903 Y158.760 E5.09020
G1 X126.260 Y159.192 F4500.000
G1 X103.244 Y159.192 E5.32274 F735.000
G1 X103.244 Y115.935 E5.75978
G1 X126.260 Y115.935 E5.99231
G1 X126.260 Y159.117 E6.42859
G1 X125.827 Y158.942 F4500.000
G1 X104.262 Y116.953 F4500.000
G1 X125.243 Y116.953 E6.64333 F1200.000
G1 X125.243 Y158.174 E7.06524
G1 X104.262 Y158.174 E7.27998
G1 X104.262 Y117.028 E7.70112
G1 X104.624 Y117.314 F4500.000
G1 X124.881 Y117.314 E7.90845 F1200.000
G1 X124.881 Y157.813 E8.32295
G1 X104.624 Y157.813 E8.53029
G1 X104.624 Y117.389 E8.94402
G1 X104.986 Y117.676 F4500.000
G1 X124.519 Y117.676 E9.14395 F1200.000
G1 X124.519 Y157.451 E9.55104
G1 X104.986 Y157.451 E9.75097
G1 X104.986 Y117.751 E10.15730
G1 X105.347 Y118.038 F4500.000
G1 X124.158 Y118.038 E10.34983 F1200.000
G1 X124.158 Y157.089 E10.74952
G1 X105.347 Y157.089 E10.94204
G1 X105.347 Y118.113 E11.34097
G1 X105.709 Y118.400 F4500.000
G1 X123.796 Y118.400 E11.52609 F1200.000
G1 X123.796 Y156.727 E11.91837
G1 X105.709 Y156.727 E12.10349
G1 X105.709 Y118.475 E12.49501
G1 X106.071 Y118.761 F4500.000
G1 X123.434 Y118.761 E12.67273 F1200.000
G1 X123.434 Y156.366 E13.05761
G1 X106.071 Y156.366 E13.23532
G1 X106.071 Y118.836 E13.61944
G1 X106.433 Y119.123 F4500.000
G1 X123.072 Y119.123 E13.78975 F1200.000
G1 X123.072 Y156.004 E14.16723
G1 X106.433 Y156.004 E14.33754
G1 X106.433 Y119.198 E14.71425
G1 X106.794 Y119.485 F4500.000
G1 X122.711 Y119.485 E14.87715 F1200.000
G1 X122.711 Y155.642 E15.24722
G1 X106.794 Y155.642 E15.41013
G1 X106.794 Y119.560 E15.77943
G1 X107.156 Y119.847 F4500.000
G1 X122.349 Y119.847 E15.93493 F1200.000
G1 X122.349 Y155.280 E16.29760
G1 X107.156 Y155.280 E16.45310
G1 X107.156 Y119.922 E16.81500
G1 X107.518 Y120.208 F4500.000
G1 X121.987 Y120.208 E16.96310 F1200.000
G1 X121.987 Y154.919 E17.31836
G1 X107.518 Y154.919 E17.46646
G1 X107.518 Y120.283 E17.82095
G1 X107.880 Y120.570 F4500.000
G1 X121.625 Y120.570 E17.96164 F1200.000
G1 X121.625 Y154.557 E18.30950
G1 X107.880 Y154.557 E18.45019
G1 X107.880 Y120.645 E18.79728
G1 X108.241 Y120.932 F4500.000
G1 X121.264 Y120.932 E18.93057 F1200.000
G1 X121.264 Y154.195 E19.27102
G1 X108.241 Y154.195 E19.40431
G1 X108.241 Y121.007 E19.74400
G1 X108.603 Y121.293 F4500.000
G1 X120.902 Y121.293 E19.86988 F1200.000
G1 X120.902 Y153.833 E20.20293
G1 X108.603 Y153.833 E20.32881
G1 X108.603 Y121.368 E20.66109
G1 X108.965 Y121.655 F4500.000
G1 X120.540 Y121.655 E20.77956 F1200.000
G1 X120.540 Y153.472 E21.10521
G1 X108.965 Y153.472 E21.22368
G1 X108.965 Y121.730 E21.54856
G1 X109.326 Y122.017 F4500.000
G1 X120.179 Y122.017 E21.65963 F1200.000
G1 X120.179 Y153.110 E21.97787
G1 X109.326 Y153.110 E22.08894
G1 X109.326 Y122.092 E22.40641
G1 X109.688 Y122.379 F4500.000
G1 X119.817 Y122.379 E22.51008 F1200.000
G1 X119.817 Y152.748 E22.82092
G1 X109.688 Y152.748 E22.92458
G1 X109.688 Y122.454 E23.23465
G1 X110.050 Y122.740 F4500.000
G1 X119.455 Y122.740 E23.33091 F1200.000
G1 X119.455 Y152.387 E23.63434
G1 X110.050 Y152.387 E23.73060
G1 X110.050 Y122.815 E24.03327
G1 X110.412 Y123.102 F4500.000
G1 X119.093 Y123.102 E24.12212 F1200.000
G1 X119.093 Y152.025 E24.41815
G1 X110.412 Y152.025 E24.50700
G1 X110.412 Y123.177 E24.80226
G1 X110.773 Y123.464 F4500.000
G1 X118.732 Y123.464 E24.88371 F1200.000
G1 X118.732 Y151.663 E25.17233
G1 X110.773 Y151.663 E25.25379
G1 X110.773 Y123.539 E25.54164
G1 X111.135 Y123.826 F4500.000
G1 X118.370 Y123.826 E25.61569 F1200.000
G1 X118.370 Y151.301 E25.89690
G1 X111.135 Y151.301 E25.97095
G1 X111.135 Y123.901 E26.25140
G1 X111.497 Y124.187 F4500.000
G1 X118.008 Y124.187 E26.31804 F1200.000
G1 X118.008 Y150.940 E26.59185
G1 X111.497 Y150.940 E26.65849
G1 X111.497 Y124.262 E26.93154
G1 X111.859 Y124.549 F4500.000
G1 X117.646 Y124.549 E26.99077 F1200.000
G1 X117.646 Y150.578 E27.25718
G1 X111.859 Y150.578 E27.31642
G1 X111.859 Y124.624 E27.58206
G1 X112.220 Y124.911 F4500.000
G1 X117.285 Y124.911 E27.63389 F1200.000
G1 X117.285 Y150.216 E27.89289
G1 X112.220 Y150.216 E27.94472
G1 X112.220 Y124.986 E28.20296
G1 X112.582 Y125.273 F4500.000
G1 X116.923 Y125.273 E28.24739 F1200.000
G1 X116.923 Y149.854 E28.49898
G1 X112.582 Y149.854 E28.54341
G1 X112.582 Y125.348 E28.79424
G1 X112.944 Y125.634 F4500.000
G1 X116.561 Y125.634 E28.83126 F1200.000
G1 X116.561 Y149.493 E29.07545
G1 X112.944 Y149.493 E29.11248
G1 X112.944 Y125.709 E29.35590
G1 X113.306 Y125.996 F4500.000
G1 X116.199 Y125.996 E29.38552 F1200.000
G1 X116.199 Y149.131 E29.62231
G1 X113.306 Y149.131 E29.65193
G1 X113.306 Y126.071 E29.88795
G1 X113.667 Y126.358 F4500.000
G1 X115.838 Y126.358 E29.91016 F1200.000
G1 X115.838 Y148.769 E30.13954
G1 X113.667 Y148.769 E30.16176
G1 X113.667 Y126.433 E30.39037
G1 X114.029 Y126.720 F4500.000
G1 X115.476 Y126.720 E30.40518 F1200.000
G1 X115.476 Y148.407 E30.62716
G1 X114.029 Y148.407 E30.64197
G1 X114.029 Y126.795 E30.86317
G1 X114.391 Y127.081 F4500.000
G1 X115.114 Y127.081 E30.87058 F1200.000
G1 X115.114 Y148.046 E31.08515
G1 X114.391 Y148.046 E31.09256
G1 X114.391 Y127.156 E31.30636
G1 E28.80636 F1200.00000
G92 E0
G1 X162.531 Y146.525 F4500.000
G1 E2.50000 F1200.00000
G1 X160.339 Y146.525 E2.52214 F1050.000
G1 X160.339 Y144.413 E2.54348
G1 X162.531 Y144.413 E2.56562
G1 X162.531 Y111.525 E2.89790
G1 X160.689 Y111.525 E2.91651
G1 X160.689 Y109.414 E2.93783
G1 X162.531 Y109.414 E2.95644
G1 X162.531 Y107.855 E2.97219
G1 X194.041 Y107.854 E3.29055
G1 X194.041 Y149.683 E3.71316
G1 X162.531 Y149.683 E4.03152
G1 X162.531 Y146.600 E4.06267
G1 X162.174 Y146.882 F4500.000
G1 X159.982 Y146.882 E4.08481 F1050.000
G1 X159.982 Y144.056 E4.11336
G1 X162.174 Y144.056 E4.13550
G1 X162.174 Y111.882 E4.46056
G1 X160.332 Y111.882 E4.47917
G1 X160.332 Y109.057 E4.50771
G1 X162.174 Y109.057 E4.52632
G1 X162.174 Y107.498 E4.54207
G1 X194.398 Y107.497 E4.86764
G1 X194.398 Y150.040 E5.29747
G1 X162.174 Y150.040 E5.62304
G1 X162.174 Y146.957 E5.65419
G1 X161.817 Y147.239 F4500.000
G1 X159.625 Y147.239 E5.67633 F735.000
G1 X159.625 Y143.699 E5.71210
G1 X161.817 Y143.699 E5.73424
G1 X161.817 Y112.239 E6.05209
G1 X159.975 Y112.239 E6.07070
G1 X159.975 Y108.700 E6.10645
G1 X161.817 Y108.700 E6.12506
G1 X161.817 Y107.141 E6.14081
G1 X194.755 Y107.140 E6.47360
G1 X194.755 Y150.397 E6.91064
G1 X161.817 Y150.397 E7.24343
G1 X161.817 Y147.314 E7.27458
G1 X161.817 Y146.739 F4500.000
G1 E4.77458 F1200.00000
G92 E0
G1 X160.993 Y109.718 F4500.000
G1 E2.50000 F1200.00000
G1 X162.834 Y109.718 E2.51874 F1200.000
G1 X162.834 Y108.159 E2.53461
G1 X193.738 Y108.158 E2.84916
G1 X193.738 Y149.379 E3.26873
G1 X162.834 Y149.379 E3.58328
G1 X162.834 Y146.221 E3.61542
G1 X160.643 Y146.221 E3.63773
G1 X160.643 Y144.717 E3.65304
G1 X162.834 Y144.717 E3.67535
G1 X162.834 Y111.221 E4.01627
G1 X160.993 Y111.221 E4.03502
G1 X160.993 Y109.793 E4.04956
G1 X161.352 Y110.077 F4500.000
G1 X163.194 Y110.077 E4.06830 F1200.000
G1 X163.194 Y108.518 E4.08417
G1 X193.378 Y108.517 E4.39140
G1 X193.378 Y149.020 E4.80364
G1 X163.194 Y149.020 E5.11087
G1 X163.194 Y145.862 E5.14301
G1 X161.002 Y145.862 E5.16532
G1 X161.002 Y145.076 E5.17331
G1 X163.194 Y145.076 E5.19562
G1 X163.194 Y110.862 E5.54387
G1 X161.352 Y110.862 E5.56261
G1 X161.352 Y110.152 E5.56983
G1 X163.554 Y108.878 F4500.000
G1 X193.018 Y108.877 E5.86973 F1200.000
G1 X193.018 Y148.660 E6.27465
G1 X163.554 Y148.660 E6.57455
G1 X163.554 Y108.953 E6.97870
G1 X163.913 Y109.238 F4500.000
G1 X192.659 Y109.237 E7.27128 F1200.000
G1 X192.659 Y148.300 E7.66888
G1 X163.913 Y148.300 E7.96146
G1 X163.913 Y109.313 E8.35829
G1 X164.273 Y109.598 F4500.000
G1 X192.299 Y109.597 E8.64354 F1200.000
G1 X192.299 Y147.940 E9.03382
G1 X164.273 Y147.940 E9.31907
G1 X164.273 Y109.673 E9.70858
G1 X164.633 Y109.957 F4500.000
G1 X191.939 Y109.956 E9.98651 F1200.000
G1 X191.939 Y147.581 E10.36946
G1 X164.633 Y147.581 E10.64740
G1 X164.633 Y110.032 E11.02958
G1 X164.993 Y110.317 F4500.000
G1 X191.579 Y110.316 E11.30019 F1200.000
G1 X191.579 Y147.221 E11.67582
G1 X164.993 Y147.221 E11.94643
G1 X164.993 Y110.392 E12.32128
G1 X165.352 Y110.677 F4500.000
G1 X191.220 Y110.676 E12.58457 F1200.000
G1 X191.220 Y146.861 E12.95288
G1 X165.352 Y146.861 E13.21617
G1 X165.352 Y110.752 E13.58370
G1 X165.712 Y111.036 F4500.000
G1 X190.860 Y111.036 E13.83967 F1200.000
G1 X190.860 Y146.501 E14.20065
G1 X165.712 Y146.501 E14.45661
G1 X165.712 Y111.111 E14.81683
G1 X166.072 Y111.396 F4500.000
G1 X190.500 Y111.395 E15.06547 F1200.000
G1 X190.500 Y146.142 E15.41913
G1 X166.072 Y146.142 E15.66777
G1 X166.072 Y111.471 E16.02066
G1 X166.431 Y111.756 F4500.000
G1 X190.141 Y111.755 E16.26198 F1200.000
G1 X190.141 Y145.782 E16.60831
G1 X166.431 Y145.782 E16.84963
G1 X166.431 Y111.831 E17.19520
G1 X166.791 Y112.116 F4500.000
G1 X189.781 Y112.115 E17.42919 F1200.000
G1 X189.781 Y145.422 E17.76821
G1 X166.791 Y145.422 E18.00220
G1 X166.791 Y112.191 E18.34045
G1 X167.151 Y112.475 F4500.000
G1 X189.421 Y112.475 E18.56712 F1200.000
G1 X189.421 Y145.063 E18.89881
G1 X167.151 Y145.063 E19.12548
G1 X167.151 Y112.550 E19.45641
G1 X167.511 Y112.835 F4500.000
G1 X189.061 Y112.834 E19.67576 F1200.000
G1 X189.061 Y144.703 E20.00012
G1 X167.511 Y144.703 E20.21947
G1 X167.511 Y112.910 E20.54307
G1 X167.870 Y113.195 F4500.000
G1 X188.702 Y113.194 E20.75510 F1200.000
G1 X188.702 Y144.343 E21.07214
G1 X167.870 Y144.343 E21.28417
G1 X167.870 Y113.270 E21.60045
G1 X168.230 Y113.554 F4500.000
G1 X188.342 Y113.554 E21.80515 F1200.000
G1 X188.342 Y143.983 E22.11487
G1 X168.230 Y143.983 E22.31958
G1 X168.230 Y113.629 E22.62853
G1 X168.590 Y113.914 F4500.000
G1 X187.982 Y113.914 E22.82591 F1200.000
G1 X187.982 Y143.624 E23.12831
G1 X168.590 Y143.624 E23.32569
G1 X168.590 Y113.989 E23.62732
G1 X168.950 Y114.274 F4500.000
G1 X187.622 Y114.273 E23.81738 F1200.000
G1 X187.622 Y143.264 E24.11245
G1 X168.950 Y143.264 E24.30251
G1 X168.950 Y114.349 E24.59682
G1 X169.309 Y114.634 F4500.000
G1 X187.263 Y114.633 E24.77955 F1200.000
G1 X187.263 Y142.904 E25.06731
G1 X169.309 Y142.904 E25.25004
G1 X169.309 Y114.709 E25.53702
G1 X169.669 Y114.993 F4500.000
G1 X186.903 Y114.993 E25.71244 F1200.000
G1 X186.903 Y142.544 E25.99287
G1 X169.669 Y142.544 E26.16828
G1 X169.669 Y115.068 E26.44794
G1 X170.029 Y115.353 F4500.000
G1 X186.543 Y115.353 E26.61603 F1200.000
G1 X186.543 Y142.185 E26.88914
G1 X170.029 Y142.185 E27.05722
G1 X170.029 Y115.428 E27.32956
G1 X170.389 Y115.713 F4500.000
G1 X186.183 Y115.712 E27.49033 F1200.000
G1 X186.183 Y141.825 E27.75611
G1 X170.389 Y141.825 E27.91688
G1 X170.389 Y115.788 E28.18189
G1 X170.748 Y116.072 F4500.000
G1 X185.824 Y116.072 E28.33534 F1200.000
G1 X185.824 Y141.465 E28.59380
G1 X170.748 Y141.465 E28.74724
G1 X170.748 Y116.147 E29.00494
G1 X171.108 Y116.432 F4500.000
G1 X185.464 Y116.432 E29.15106 F1200.000
G1 X185.464 Y141.106 E29.40219
G1 X171.108 Y141.106 E29.54831
G1 X171.108 Y116.507 E29.79868
G1 X171.468 Y116.792 F4500.000
G1 X185.104 Y116.791 E29.93748 F1200.000
G1 X185.104 Y140.746 E30.18130
G1 X171.468 Y140.746 E30.32009
G1 X171.468 Y116.867 E30.56314
G1 X171.827 Y117.152 F4500.000
G1 X184.745 Y117.151 E30.69461 F1200.000
G1 X184.745 Y140.386 E30.93111
G1 X171.827 Y140.386 E31.06258
G1 X171.827 Y117.227 E31.29831
G1 X172.187 Y117.511 F4500.000
G1 X184.385 Y117.511 E31.42246 F1200.000
G1 X184.385 Y140.026 E31.65163
G1 X172.187 Y140.026 E31.77578
G1 X172.187 Y117.586 E32.00418
G1 X172.547 Y117.871 F4500.000
G1 X184.025 Y117.871 E32.12101 F1200.000
G1 X184.025 Y139.667 E32.34285
G1 X172.547 Y139.667 E32.45968
G1 X172.547 Y117.946 E32.68076
G1 X172.907 Y118.231 F4500.000
G1 X183.665 Y118.230 E32.79027 F1200.000
G1 X183.665 Y139.307 E33.00479
G1 X172.907 Y139.307 E33.11429
G1 X172.907 Y118.306 E33.32805
G1 X173.266 Y118.591 F4500.000
G1 X183.306 Y118.590 E33.43023 F1200.000
G1 X183.306 Y138.947 E33.63743
G1 X173.266 Y138.947 E33.73961
G1 X173.266 Y118.666 E33.94605
G1 X173.626 Y118.950 F4500.000
G1 X182.946 Y118.950 E34.04091 F1200.000
G1 X182.946 Y138.587 E34.24078
G1 X173.626 Y138.587 E34.33564
G1 X173.626 Y119.025 E34.53475
G1 X173.986 Y119.310 F4500.000
G1 X182.586 Y119.310 E34.62229 F1200.000
G1 X182.586 Y138.228 E34.81484
G1 X173.986 Y138.228 E34.90238
G1 X173.986 Y119.385 E35.09417
G1 X174.346 Y119.670 F4500.000
G1 X182.226 Y119.669 E35.17438 F1200.000
G1 X182.226 Y137.868 E35.35961
G1 X174.346 Y137.868 E35.43983
G1 X174.346 Y119.745 E35.62429
G1 X174.705 Y120.029 F4500.000
G1 X181.867 Y120.029 E35.69718 F1200.000
G1 X181.867 Y137.508 E35.87509
G1 X174.705 Y137.508 E35.94798
G1 X174.705 Y120.104 E36.12512
G1 X175.065 Y120.389 F4500.000
G1 X181.507 Y120.389 E36.19069 F1200.000
G1 X181.507 Y137.148 E36.36127
G1 X175.065 Y137.148 E36.42684
G1 X175.065 Y120.464 E36.59666
G1 X175.425 Y120.749 F4500.000
G1 X181.147 Y120.749 E36.65491 F1200.000
G1 X181.147 Y136.789 E36.81817
G1 X175.425 Y136.789 E36.87641
G1 X175.425 Y120.824 E37.03891
G1 X175.784 Y121.109 F4500.000
G1 X180.787 Y121.108 E37.08983 F1200.000
G1 X180.787 Y136.429 E37.24577
G1 X175.784 Y136.429 E37.29669
G1 X175.784 Y121.184 E37.45186
G1 X176.144 Y121.468 F4500.000
G1 X180.428 Y121.468 E37.49546 F1200.000
G1 X180.428 Y136.069 E37.64408
G1 X176.144 Y136.069 E37.68768
G1 X176.144 Y121.543 E37.83553
G1 X176.504 Y121.828 F4500.000
G1 X180.068 Y121.828 E37.87181 F1200.000
G1 X180.068 Y135.710 E38.01310
G1 X176.504 Y135.710 E38.04937
G1 X176.504 Y121.903 E38.18990
G1 X176.864 Y122.188 F4500.000
G1 X179.708 Y122.188 E38.21886 F1200.000
G1 X179.708 Y135.350 E38.35282
G1 X176.864 Y135.350 E38.38178
G1 X176.864 Y122.263 E38.51498
