; generated by Slic3r 1.2.9 on 2015-12-13 at 03:38:43

; external perimeters extrusion width = 0.35mm
; perimeters extrusion width = 0.32mm
; infill extrusion width = 0.38mm
; solid infill extrusion width = 0.35mm
; top infill extrusion width = 0.30mm
; support material extrusion width = 0.40mm

M107
M190 S60 ; set bed temperature
M104 S200 ; set temperature
G28 ; home all axes
G1 Z5 F5000 ; lift nozzle
M109 S200 ; wait for temperature to be reached
G21 ; set units to millimeters
G90 ; use absolute coordinates
M82 ; use absolute distances for extrusion
G92 E0
G1 E-2.50000 F1200.00000
G92 E0
G1 Z0.200 F4500.000
G1 X97.871 Y111.455 F4500.000
G1 E2.50000 F1200.00000
G1 X99.627 Y109.955 E2.52333 F1200.000
G1 X102.048 Y109.095 E2.54928
G1 X160.620 Y100.301 E3.14768
G1 X161.616 Y100.227 E3.15778
G1 X194.955 Y100.226 E3.49461
G1 X197.230 Y100.623 E3.51794
G1 X199.235 Y101.767 E3.54127 F1200.000
G1 X200.735 Y103.523 E3.56460
G1 X201.551 Y105.683 E3.58793
G1 X201.670 Y106.940 E3.60069
G1 X201.670 Y150.597 E4.04176
G1 X201.273 Y152.872 E4.06509
G1 X200.129 Y154.877 E4.08842
G1 X198.373 Y156.377 E4.11175
G1 X195.811 Y157.256 E4.13912
G1 X127.316 Y166.051 E4.83682
G1 X126.461 Y166.106 E4.84548
G1 X103.044 Y166.106 E5.08206
G1 X100.770 Y165.709 E5.10539
G1 X98.764 Y164.565 E5.12872
G1 X97.265 Y162.809 E5.15204
G1 X96.449 Y160.649 E5.17537
G1 X96.330 Y159.392 E5.18813
G1 X96.330 Y115.735 E5.62921
G1 X96.727 Y113.460 E5.65254
G1 X97.834 Y111.520 E5.67511
G1 X98.193 Y111.644 F4500.000
G1 X98.225 Y111.589 E5.67575 F1200.000
G1 X99.968 Y110.172 E5.69845
G1 X102.101 Y109.448 E5.72120
G1 X160.673 Y100.654 E6.31960
G1 X161.616 Y100.584 E6.32917
G1 X194.955 Y100.583 E6.66600
G1 X197.166 Y100.980 E6.68869
G1 X199.101 Y102.121 E6.71139 F1200.000
G1 X200.518 Y103.863 E6.73408
G1 X201.313 Y106.940 E6.76619
G1 X201.313 Y150.597 E7.20726
G1 X200.916 Y152.808 E7.22996
G1 X199.775 Y154.743 E7.25265
G1 X198.032 Y156.160 E7.27535
G1 X195.765 Y156.902 E7.29945
G1 X127.270 Y165.697 E7.99715
G1 X126.461 Y165.749 E8.00535
G1 X103.044 Y165.749 E8.24193
G1 X100.834 Y165.352 E8.26462
G1 X98.899 Y164.211 E8.28732
G1 X97.481 Y162.469 E8.31001
G1 X96.687 Y159.392 E8.34211
G1 X96.687 Y115.735 E8.78319
G1 X97.084 Y113.524 E8.80589
G1 X98.155 Y111.709 E8.82718
G1 E6.32718 F1200.00000
G92 E0
G1 X125.546 Y158.478 F4500.000
G1 E2.50000 F1200.00000
G1 X103.959 Y158.478 E2.71811 F1050.000
G1 X103.959 Y116.649 E3.14071
G1 X125.546 Y116.649 E3.35882
G1 X125.546 Y158.403 E3.78067
G1 X125.903 Y158.835 F4500.000
G1 X103.602 Y158.835 E4.00599 F1050.000
G1 X103.602 Y116.292 E4.43581
G1 X125.903 Y116.292 E4.66114
G1 X125.903 Y158.760 E5.09020
G1 X126.260 Y159.192 F4500.000
G1 X103.244 Y159.192 E5.32274 F735.000
G1 X103.244 Y115.935 E5.75978
G1 X126.260 Y115.935 E5.99231
G1 X126.260 Y159.117 E6.42859
G1 X125.827 Y158.942 F4500.000
G1 X104.262 Y116.953 F4500.000
G1 X125.243 Y116.953 E6.64333 F1200.000
G1 X125.243 Y158.174 E7.06524
G1 X104.262 Y158.174 E7.27998
G1 X104.262 Y117.028 E7.70112
G1 X104.624 Y117.314 F4500.000
G1 X124.881 Y117.314 E7.90845 F1200.000
G1 X124.881 Y157.813 E8.32295
G1 X104.624 Y157.813 E8.53029
G1 X104.624 Y117.389 E8.94402
G1 X104.986 Y117.676 F4500.000
G1 X124.519 Y117.676 E9.14395 F1200.000
G1 X124.519 Y157.451 E9.55104
G1 X104.986 Y157.451 E9.75097
G1 X104.986 Y117.751 E10.15730
G1 X105.347 Y118.038 F4500.000
G1 X124.158 Y118.038 E10.34983 F1200.000
G1 X124.158 Y157.089 E10.74952
G1 X105.347 Y157.089 E10.94204
G1 X105.347 Y118.113 E11.34097
G1 X105.709 Y118.400 F4500.000
G1 X123.796 Y118.400 E11.52609 F1200.000
G1 X123.796 Y156.727 E11.91837
G1 X105.709 Y156.727 E12.10349
G1 X105.709 Y118.475 E12.49501
G1 X106.071 Y118.761 F4500.000
G1 X123.434 Y118.761 E12.67273 F1200.000
G1 X123.434 Y156.366 E13.05761
G1 X106.071 Y156.366 E13.23532
G1 X106.071 Y118.836 E13.61944
G1 X106.433 Y119.123 F4500.000
G1 X123.072 Y119.123 E13.78975 F1200.000
G1 X123.072 Y156.004 E14.16723
G1 X106.433 Y156.004 E14.33754
G1 X106.433 Y119.198 E14.71425
G1 X106.794 Y119.485 F4500.000
G1 X122.711 Y119.485 E14.87715 F1200.000
G1 X122.711 Y155.642 E15.24722
G1 X106.794 Y155.642 E15.41013
G1 X106.794 Y119.560 E15.77943
G1 X107.156 Y119.847 F4500.000
G1 X122.349 Y119.847 E15.93493 F1200.000
G1 X122.349 Y155.280 E16.29760
G1 X107.156 Y155.280 E16.45310
G1 X107.156 Y119.922 E16.81500
G1 X107.518 Y120.208 F4500.000
G1 X121.987 Y120.208 E16.96310 F1200.000
G1 X121.987 Y154.919 E17.31836
G1 X107.518 Y154.919 E17.46646
G1 X107.518 Y120.283 E17.82095
G1 X107.880 Y120.570 F4500.000
G1 X121.625 Y120.570 E17.96164 F1200.000
G1 X121.625 Y154.557 E18.30950
G1 X107.880 Y154.557 E18.45019
G1 X107.880 Y120.645 E18.79728
G1 X108.241 Y120.932 F4500.000
G1 X121.264 Y120.932 E18.93057 F1200.000
G1 X121.264 Y154.195 E19.27102
G1 X108.241 Y154.195 E19.40431
G1 X108.241 Y121.007 E19.74400
G1 X108.603 Y121.293 F4500.000
G1 X120.902 Y121.293 E19.86988 F1200.000
G1 X120.902 Y153.833 E20.20293
G1 X108.603 Y153.833 E20.32881
G1 X108.603 Y121.368 E20.66109
G1 X108.965 Y121.655 F4500.000
G1 X120.540 Y121.655 E20.77956 F1200.000
G1 X120.540 Y153.472 E21.10521
G1 X108.965 Y153.472 E21.22368
G1 X108.965 Y121.730 E21.54856
G1 X109.326 Y122.017 F4500.000
G1 X120.179 Y122.017 E21.65963 F1200.000
G1 X120.179 Y153.110 E21.97787
G1 X109.326 Y153.110 E22.08894
G1 X109.326 Y122.092 E22.40641
G1 X109.688 Y122.379 F4500.000
G1 X119.817 Y122.379 E22.51008 F1200.000
G1 X119.817 Y152.748 E22.82092
G1 X109.688 Y152.748 E22.92458
G1 X109.688 Y122.454 E23.23465
G1 X110.050 Y122.740 F4500.000
G1 X119.455 Y122.740 E23.33091 F1200.000
G1 X119.455 Y152.387 E23.63434
G1 X110.050 Y152.387 E23.73060
G1 X110.050 Y122.815 E24.03327
G1 X110.412 Y123.102 F4500.000
G1 X119.093 Y123.102 E24.12212 F1200.000
G1 X119.093 Y152.025 E24.41815
G1 X110.412 Y152.025 E24.50700
G1 X110.412 Y123.177 E24.80226
G1 X110.773 Y123.464 F4500.000
G1 X118.732 Y123.464 E24.88371 F1200.000
G1 X118.732 Y151.663 E25.17233
G1 X110.773 Y151.663 E25.25379
G1 X110.773 Y123.539 E25.54164
G1 X111.135 Y123.826 F4500.000
G1 X118.370 Y123.826 E25.61569 F1200.000
G1 X118.370 Y151.301 E25.89690
G1 X111.135 Y151.301 E25.97095
G1 X111.135 Y123.901 E26.25140
G1 X111.497 Y124.187 F4500.000
G1 X118.008 Y124.187 E26.31804 F1200.000
G1 X118.008 Y150.940 E26.59185
G1 X111.497 Y150.940 E26.65849
G1 X111.497 Y124.262 E26.93154
G1 X111.859 Y124.549 F4500.000
G1 X117.646 Y124.549 E26.99077 F1200.000
G1 X117.646 Y150.578 E27.25718
G1 X111.859 Y150.578 E27.31642
G1 X111.859 Y124.624 E27.58206
G1 X112.220 Y124.911 F4500.000
G1 X117.285 Y124.911 E27.63389 F1200.000
G1 X117.285 Y150.216 E27.89289
G1 X112.220 Y150.216 E27.94472
G1 X112.220 Y124.986 E28.20296
G1 X112.582 Y125.273 F4500.000
G1 X116.923 Y125.273 E28.24739 F1200.000
G1 X116.923 Y149.854 E28.49898
G1 X112.582 Y149.854 E28.54341
G1 X112.582 Y125.348 E28.79424
G1 X112.944 Y125.634 F4500.000
G1 X116.561 Y125.634 E28.83126 F1200.000
G1 X116.561 Y149.493 E29.07545
G1 X112.944 Y149.493 E29.11248
G1 X112.944 Y125.709 E29.35590
G1 X113.306 Y125.996 F4500.000
G1 X116.199 Y125.996 E29.38552 F1200.000
G1 X116.199 Y149.131 E29.62231
G1 X113.306 Y149.131 E29.65193
G1 X113.306 Y126.071 E29.88795
G1 X113.667 Y126.358 F4500.000
G1 X115.838 Y126.358 E29.91016 F1200.000
G1 X115.838 Y148.769 E30.13954
G1 X113.667 Y148.769 E30.16176
G1 X113.667 Y126.433 E30.39037
G1 X114.029 Y126.720 F4500.000
G1 X115.476 Y126.720 E30.40518 F1200.000
G1 X115.476 Y148.407 E30.62716
G1 X114.029 Y148.407 E30.64197
G1 X114.029 Y126.795 E30.86317
G1 X114.391 Y127.081 F4500.000
G1 X115.114 Y127.081 E30.87058 F1200.000
G1 X115.114 Y148.046 E31.08515
G1 X114.391 Y148.046 E31.09256
G1 X114.391 Y127.156 E31.30636
G1 E28.80636 F1200.00000
G92 E0
G1 X162.531 Y149.683 F4500.000
G1 E2.50000 F1200.00000
G1 X162.531 Y107.855 E2.92260 F1050.000
G1 X194.041 Y107.854 E3.24096
G1 X194.041 Y149.683 E3.66357
G1 X162.606 Y149.683 E3.98117
G1 X162.174 Y150.040 F4500.000
G1 X162.174 Y107.498 E4.41098 F1050.000
G1 X194.398 Y107.497 E4.73656
G1 X194.398 Y150.040 E5.16638
G1 X162.249 Y150.040 E5.49120
G1 X161.817 Y150.397 F4500.000
G1 X161.817 Y107.141 E5.92823 F735.000
G1 X194.755 Y107.140 E6.26102
G1 X194.755 Y150.397 E6.69806
G1 X161.892 Y150.397 E7.03009
G1 X162.067 Y149.964 F4500.000
G1 X162.834 Y108.159 F4500.000
G1 X193.738 Y108.158 E7.34430 F1200.000
G1 X193.738 Y149.379 E7.76342
G1 X162.834 Y149.379 E8.07763
G1 X162.834 Y108.234 E8.49598
G1 X163.193 Y108.518 F4500.000
G1 X193.378 Y108.517 E8.80288 F1200.000
G1 X193.378 Y149.020 E9.21469
G1 X163.193 Y149.020 E9.52159
G1 X163.193 Y108.593 E9.93263
G1 X163.553 Y108.877 F4500.000
G1 X193.019 Y108.876 E10.23223 F1200.000
G1 X193.019 Y148.661 E10.63673
G1 X163.553 Y148.661 E10.93632
G1 X163.553 Y108.952 E11.34006
G1 X163.912 Y109.237 F4500.000
G1 X192.660 Y109.236 E11.63234 F1200.000
G1 X192.660 Y148.301 E12.02954
G1 X163.912 Y148.301 E12.32183
G1 X163.912 Y109.312 E12.71825
G1 X164.272 Y109.596 F4500.000
G1 X192.300 Y109.595 E13.00323 F1200.000
G1 X192.300 Y147.942 E13.39312
G1 X164.272 Y147.942 E13.67810
G1 X164.272 Y109.671 E14.06722
G1 X164.631 Y109.955 F4500.000
G1 X191.941 Y109.954 E14.34489 F1200.000
G1 X191.941 Y147.583 E14.72748
G1 X164.631 Y147.583 E15.00515
G1 X164.631 Y110.030 E15.38696
G1 X164.990 Y110.315 F4500.000
G1 X191.582 Y110.314 E15.65733 F1200.000
G1 X191.582 Y147.223 E16.03260
G1 X164.990 Y147.223 E16.30297
G1 X164.990 Y110.390 E16.67747
G1 X165.350 Y110.674 F4500.000
G1 X191.222 Y110.673 E16.94053 F1200.000
G1 X191.222 Y146.864 E17.30849
G1 X165.350 Y146.864 E17.57155
G1 X165.350 Y110.749 E17.93875
G1 X165.709 Y111.033 F4500.000
G1 X190.863 Y111.033 E18.19450 F1200.000
G1 X190.863 Y146.505 E18.55516
G1 X165.709 Y146.505 E18.81091
G1 X165.709 Y111.108 E19.17080
G1 X166.068 Y111.393 F4500.000
G1 X190.504 Y111.392 E19.41925 F1200.000
G1 X190.504 Y146.145 E19.77260
G1 X166.068 Y146.145 E20.02104
G1 X166.068 Y111.468 E20.37363
G1 X166.428 Y111.752 F4500.000
G1 X190.144 Y111.751 E20.61476 F1200.000
G1 X190.144 Y145.786 E20.96081
G1 X166.428 Y145.786 E21.20195
G1 X166.428 Y111.827 E21.54722
G1 X166.787 Y112.111 F4500.000
G1 X189.785 Y112.111 E21.78105 F1200.000
G1 X189.785 Y145.427 E22.11979
G1 X166.787 Y145.427 E22.35362
G1 X166.787 Y112.186 E22.69159
G1 X167.146 Y112.471 F4500.000
G1 X189.426 Y112.470 E22.91811 F1200.000
G1 X189.426 Y145.067 E23.24954
G1 X167.146 Y145.067 E23.47606
G1 X167.146 Y112.546 E23.80672
G1 X167.506 Y112.830 F4500.000
G1 X189.066 Y112.829 E24.02594 F1200.000
G1 X189.066 Y144.708 E24.35006
G1 X167.506 Y144.708 E24.56928
G1 X167.506 Y112.905 E24.89263
G1 X167.865 Y113.189 F4500.000
G1 X188.707 Y113.189 E25.10454 F1200.000
G1 X188.707 Y144.348 E25.42135
G1 X167.865 Y144.348 E25.63326
G1 X167.865 Y113.264 E25.94931
G1 X168.224 Y113.549 F4500.000
G1 X188.348 Y113.548 E26.15391 F1200.000
G1 X188.348 Y143.989 E26.46342
G1 X168.224 Y143.989 E26.66802
G1 X168.224 Y113.624 E26.97676
G1 X168.584 Y113.908 F4500.000
G1 X187.988 Y113.907 E27.17405 F1200.000
G1 X187.988 Y143.630 E27.47625
G1 X168.584 Y143.630 E27.67355
G1 X168.584 Y113.983 E27.97498
G1 X168.943 Y114.267 F4500.000
G1 X187.629 Y114.267 E28.16497 F1200.000
G1 X187.629 Y143.270 E28.45986
G1 X168.943 Y143.270 E28.64985
G1 X168.943 Y114.342 E28.94397
G1 X169.302 Y114.627 F4500.000
G1 X187.270 Y114.626 E29.12665 F1200.000
G1 X187.270 Y142.911 E29.41424
G1 X169.302 Y142.911 E29.59692
G1 X169.302 Y114.702 E29.88373
G1 X169.662 Y114.986 F4500.000
G1 X186.910 Y114.985 E30.05911 F1200.000
G1 X186.910 Y142.552 E30.33939
G1 X169.662 Y142.552 E30.51476
G1 X169.662 Y115.061 E30.79427
G1 X170.021 Y115.345 F4500.000
G1 X186.551 Y115.345 E30.96233 F1200.000
G1 X186.551 Y142.192 E31.23530
G1 X170.021 Y142.192 E31.40337
G1 X170.021 Y115.420 E31.67557
G1 X170.380 Y115.705 F4500.000
G1 X186.192 Y115.704 E31.83633 F1200.000
G1 X186.192 Y141.833 E32.10200
G1 X170.380 Y141.833 E32.26275
G1 X170.380 Y115.780 E32.52765
G1 X170.740 Y116.064 F4500.000
G1 X185.832 Y116.064 E32.68110 F1200.000
G1 X185.832 Y141.474 E32.93946
G1 X170.740 Y141.474 E33.09291
G1 X170.740 Y116.139 E33.35050
G1 X171.099 Y116.423 F4500.000
G1 X185.473 Y116.423 E33.49664 F1200.000
G1 X185.473 Y141.114 E33.74769
G1 X171.099 Y141.114 E33.89383
G1 X171.099 Y116.498 E34.14412
G1 X171.458 Y116.783 F4500.000
G1 X185.114 Y116.782 E34.28295 F1200.000
G1 X185.114 Y140.755 E34.52669
G1 X171.458 Y140.755 E34.66553
G1 X171.458 Y116.858 E34.90851
G1 X171.818 Y117.142 F4500.000
G1 X184.754 Y117.142 E35.04004 F1200.000
G1 X184.754 Y140.396 E35.27647
G1 X171.818 Y140.396 E35.40800
G1 X171.818 Y117.217 E35.64367
G1 X172.177 Y117.501 F4500.000
G1 X184.395 Y117.501 E35.76789 F1200.000
G1 X184.395 Y140.036 E35.99702
G1 X172.177 Y140.036 E36.12124
G1 X172.177 Y117.576 E36.34960
G1 X172.536 Y117.861 F4500.000
G1 X184.035 Y117.860 E36.46651 F1200.000
G1 X184.035 Y139.677 E36.68833
G1 X172.536 Y139.677 E36.80525
G1 X172.536 Y117.936 E37.02630
G1 X172.896 Y118.220 F4500.000
G1 X183.676 Y118.220 E37.13591 F1200.000
G1 X183.676 Y139.318 E37.35042
G1 X172.896 Y139.318 E37.46003
G1 X172.896 Y118.295 E37.67378
G1 X173.255 Y118.579 F4500.000
G1 X183.317 Y118.579 E37.77608 F1200.000
G1 X183.317 Y138.958 E37.98328
G1 X173.255 Y138.958 E38.08558
G1 X173.255 Y118.654 E38.29202
G1 X173.615 Y118.939 F4500.000
G1 X182.957 Y118.938 E38.38701 F1200.000
G1 X182.957 Y138.599 E38.58691
G1 X173.615 Y138.599 E38.68191
G1 X173.615 Y119.014 E38.88104
G1 X173.974 Y119.298 F4500.000
G1 X182.598 Y119.298 E38.96872 F1200.000
G1 X182.598 Y138.240 E39.16131
G1 X173.974 Y138.240 E39.24900
G1 X173.974 Y119.373 E39.44082
G1 X174.333 Y119.657 F4500.000
G1 X182.239 Y119.657 E39.52120 F1200.000
G1 X182.239 Y137.880 E39.70649
G1 X174.333 Y137.880 E39.78687
G1 X174.333 Y119.732 E39.97138
G1 X174.693 Y120.017 F4500.000
G1 X181.879 Y120.016 E40.04446 F1200.000
G1 X181.879 Y137.521 E40.22243
G1 X174.693 Y137.521 E40.29550
G1 X174.693 Y120.092 E40.47271
G1 X175.052 Y120.376 F4500.000
G1 X181.520 Y120.376 E40.53848 F1200.000
G1 X181.520 Y137.162 E40.70915
G1 X175.052 Y137.162 E40.77491
G1 X175.052 Y120.451 E40.94481
G1 X175.411 Y120.735 F4500.000
G1 X181.161 Y120.735 E41.00327 F1200.000
G1 X181.161 Y136.802 E41.16663
G1 X175.411 Y136.802 E41.22509
G1 X175.411 Y120.810 E41.38769
G1 X175.771 Y121.095 F4500.000
G1 X180.801 Y121.095 E41.43884 F1200.000
G1 X180.801 Y136.443 E41.59489
G1 X175.771 Y136.443 E41.64604
G1 X175.771 Y121.170 E41.80133
G1 X176.130 Y121.454 F4500.000
G1 X180.442 Y121.454 E41.84517 F1200.000
G1 X180.442 Y136.084 E41.99392
G1 X176.130 Y136.084 E42.03776
G1 X176.130 Y121.529 E42.18574
G1 X176.489 Y121.813 F4500.000
G1 X180.083 Y121.813 E42.22228 F1200.000
G1 X180.083 Y135.724 E42.36372
G1 X176.489 Y135.724 E42.40025
G1 X176.489 Y121.888 E42.54093
G1 X176.849 Y122.173 F4500.000
G1 X179.723 Y122.173 E42.57016 F1200.000
G1 X179.723 Y135.365 E42.70429
G1 X176.849 Y135.365 E42.73352
G1 X176.849 Y122.248 E42.86688
G1 X177.208 Y122.532 F4500.000
G1 X179.364 Y122.532 E42.88881 F1200.000
G1 X179.364 Y135.005 E43.01563
G1 X177.208 Y135.005 E43.03755
G1 X177.208 Y122.607 E43.16361
G1 X177.567 Y122.891 F4500.000
G1 X179.005 Y122.891 E43.17823 F1200.000
G1 X179.005 Y134.646 E43.29774
G1 X177.567 Y134.646 E43.31236
G1 X177.567 Y122.966 E43.43111
G1 X177.927 Y123.251 F4500.000
G1 X178.645 Y123.251 E43.43842 F1200.000
G1 X178.645 Y134.287 E43.55063
G1 X177.927 Y134.287 E43.55793
G1 X177.927 Y123.326 E43.66938
G1 E41.16938 F1200.00000
G92 E0
G1 Z0.200 F4500.000
M106 S114.75
M104 S205 ; set temperature
M140 S50 ; wait for bed temperature to be reached
G1 Z0.400 F4500.000
G1 X125.716 Y158.648 F4500.000
G1 E2.50000 F1200.00000
G1 X103.789 Y158.648 E2.67191 F2100.000
G1 X103.789 Y116.479 E3.00250
G1 X125.716 Y116.479 E3.17441
G1 X125.716 Y158.573 E3.50441
G1 X125.993 Y158.925 F4500.000
G1 X103.512 Y158.925 E3.68066 F2100.000
G1 X103.512 Y116.202 E4.01560
G1 X125.993 Y116.202 E4.19185
G1 X125.993 Y158.850 E4.52620
G1 X126.285 Y159.217 F4500.000
G1 X103.219 Y159.217 E4.72661 F1470.000
G1 X103.219 Y115.910 E5.10289
G1 X126.285 Y115.910 E5.30330
G1 X126.285 Y159.142 E5.67892
G1 X125.852 Y158.967 F4500.000
G1 X125.383 Y158.485 F4500.000
